X: 348
T: THE WEARY MAID
T: An cailin tuirseach
B: O'Neill's 348
M: C
L: 1/8
Z: 1999 by John Chambers <jc@trillian.mit.edu>
N: "Moderate"
N: "Collected by F.O'Neill"
K:Am
e \
| AAa2 (g<e)g2 | e>dBA GABG | AAa2 geg2 | e>dBc A2A :|
|| (B/d/) \
| e>dBA GABG | BGBc d2Bd | e>dBA GABd | g>edB A2A :|


